X:139
M:C|
L:1/8
K:F
g|a/g/f/e/ fc ABcf|AFcF EGGg|fefc ABcA|dfeg fFFg|
afge fdcB|AFcF EGGB|AfcF Bcde|fcdB AFF||

